X:1
T:The Earl of Seafield
T:The Earl of Seafield
T:Alexander Walker
C:Alexander Walker
L:1/8
Q:1/8=232
M:4/4
K:C
V:1 treble 
V:1
|: E | EA A/A/A c2 Ac | BG dG gd BG | EA A/A/A c2 AF | EC DB, CA, A,E | EA A/A/A c2 Ac | %6
 BG dG gd BG | EA A/A/A c2 AF | EC DB, CA, A,c | A/A/A a^g aA ce | gG BG dG Bc | A/A/A a^g ab a^f | %12
 ge dB cA Ac | A/A/A a^g aA ce | gG BG dG Bc | Ac Bd ce dd' | c'a b^g aAA :| %17

